X:387
T:Celebrated Ger.Flute Solo in Vauxhalls Symphony. RH.387
R:waltz
S:Rev.R.Harrison’s MS,c1815,Cumbria
O:England
A:Temple Sowerby,Cumbria
Z:vmp.Simon Wilson. Review PJH, 2008.
M:3/8
L:1/16
Q:3/8=50
K:D
df|a2a2a2|ab e3g|(fa) d3f|egcdce|dcdefg|aa2a2a|\
(ab) e3g|(fa) e3g|(B^defge)|(dc) c3d|e2e2 (ea)|\
(a2^g2) ga|b2d2 (de)|(d2c2) cd|e2e2 (eg)|fedcB|\
e>f A2^g2|A4c2|B4d2|c4e2|d4f2|a2a2a2|a4z2|\
a4(ec)|f4(dB)|e2(cA)(B^G)|A2z2^g2|a2z2:|!
|:(df)|a2a2a2|(ab) e3g|(fa) d3f|egcdce|cdcefg|a2a2a2|\
(ab) e3g|(fa) d3f|(B^defge)|d2c2 (cd)|e2e2e2|\
ec’c’^afe|d4z2|z2z2f>g|a2a2 (fd)|(d2c2) (e>f)|\
g2g2 (g>a)|(g2f2) f>g|a2a2 a>=c’|b2agfe|ab d2c2|\
d2f4|e2g4|f2a4|g2b4|a2(ab)(ab)|a4zA|d4(af)|\
b4(ge)|a2(fd)(ec)|d2z2df|a2a2a2|(ab) e3g|(fa) d3f|\
(eg)(Bd)(ce)|(dcdefg)|a2a2a2|(ab) e3g|fa d3f|\
fe(ge)(dc)|d2z2(ed)|d4zc|d4z|]

